;FLAVOR:Marlin
;TIME:3108
;Filament used: 3.65838m
;Layer height: 0.2
;MINX:57.367
;MINY:64.997
;MINZ:0.3
;MAXX:121.154
;MAXY:135.032
;MAXZ:9.1
;TARGET_MACHINE.NAME:Unknown
;Generated with Cura_SteamEngine 5.5.0
M104 S200
M105
M109 S200
M82 ;absolute extrusion mode
G28 ;Home
G1 Z15.0 F6000 ;Move the platform down 15mm
;Prime the extruder
G92 E0
G1 F200 E3
G92 E0
G92 E0
G92 E0
G1 F1500 E-6.5
;LAYER_COUNT:45
;LAYER:0
M107
G0 F3600 X62.69 Y70.297 Z0.3
;TYPE:SKIRT
G1 F1500 E0
G1 F1800 X65.372 Y68.085 E0.17344
G1 X68.602 Y66.37 E0.3559
G1 X71.986 Y65.348 E0.53225
G1 X75.545 Y64.997 E0.71068
G1 X79.107 Y65.347 E0.88924
G1 X82.439 Y66.364 E1.06305
G1 X85.692 Y68.114 E1.24733
G1 X88.371 Y70.316 E1.42034
G1 X89.233 Y71.365 E1.48808
G1 X90.096 Y70.318 E1.55577
G1 X92.796 Y68.096 E1.73023
G1 X96.008 Y66.369 E1.91217
G1 X99.421 Y65.348 E2.0899
G1 X102.965 Y64.997 E2.26758
G1 X106.524 Y65.347 E2.44599
G1 X109.858 Y66.363 E2.61988
G1 X113.113 Y68.114 E2.80428
G1 X115.791 Y70.316 E2.97725
G1 X118.08 Y73.104 E3.15722
G1 X119.772 Y76.281 E3.33679
G1 X120.789 Y79.652 E3.51246
G1 X121.105 Y83.191 E3.68972
G1 X121.105 Y95.982 E4.32787
G1 X120.683 Y98.028 E4.43209
G1 X120.173 Y98.96 E4.4851
G1 X120.912 Y100.449 E4.56803
G1 X121.154 Y102.62 E4.67701
G1 X121.115 Y117.595 E5.42412
G1 X120.84 Y120.41 E5.56523
G1 X119.816 Y123.773 E5.74062
G1 X118.088 Y126.989 E5.92276
G1 X115.843 Y129.711 E6.09879
G1 X113.145 Y131.932 E6.27313
G1 X109.931 Y133.66 E6.45519
G1 X106.519 Y134.68 E6.63286
G1 X102.965 Y135.032 E6.81103
G1 X99.424 Y134.68 E6.98857
G1 X96.077 Y133.661 E7.16312
G1 X92.817 Y131.91 E7.34773
G1 X90.116 Y129.683 E7.52238
G1 X89.284 Y128.671 E7.58775
G1 X88.43 Y129.705 E7.65465
G1 X85.732 Y131.925 E7.82897
G1 X82.503 Y133.662 E8.01189
G1 X79.099 Y134.68 E8.18915
G1 X75.545 Y135.032 E8.36733
G1 X72.016 Y134.68 E8.54426
G1 X68.636 Y133.652 E8.72052
G1 X65.407 Y131.92 E8.90332
G1 X62.716 Y129.705 E9.07721
G1 X60.438 Y126.923 E9.2566
G1 X58.746 Y123.748 E9.43609
G1 X57.729 Y120.376 E9.6118
G1 X57.416 Y116.836 E9.7891
G1 X57.417 Y104.934 E10.3829
G1 X57.51 Y101.811 E10.53877
G1 X57.79 Y100.231 E10.61883
G1 X58.446 Y99.008 E10.68807
G1 X57.688 Y97.467 E10.77374
G1 X57.449 Y95.663 E10.86453
G1 X57.367 Y83.233 E11.48468
G1 X57.68 Y79.637 E11.66477
G1 X58.723 Y76.211 E11.84343
G1 X60.407 Y73.071 E12.0212
G1 X62.69 Y70.297 E12.20043
G0 F3600 X62.972 Y70.584
G1 F1800 X65.598 Y68.418 E12.37026
G1 X68.754 Y66.742 E12.54854
G1 X72.066 Y65.742 E12.72114
G1 X75.545 Y65.399 E12.89555
G1 X79.025 Y65.741 E13.07001
G1 X82.289 Y66.737 E13.24026
G1 X85.466 Y68.446 E13.42024
G1 X88.087 Y70.6 E13.5895
G1 X89.233 Y71.994 E13.67953
G1 X90.38 Y70.602 E13.76951
G1 X93.022 Y68.428 E13.94021
G1 X96.16 Y66.741 E14.11796
G1 X99.499 Y65.742 E14.29184
G1 X102.965 Y65.399 E14.4656
G1 X106.443 Y65.741 E14.63996
G1 X109.708 Y66.736 E14.81024
G1 X112.887 Y68.446 E14.99033
G1 X115.507 Y70.6 E15.15955
G1 X117.746 Y73.327 E15.33558
G1 X119.4 Y76.433 E15.51114
G1 X120.395 Y79.731 E15.68301
G1 X120.705 Y83.191 E15.85632
G1 X120.705 Y95.94 E16.49237
G1 X120.303 Y97.889 E16.59165
G1 X119.722 Y98.951 E16.65204
G1 X120.523 Y100.564 E16.74189
G1 X120.754 Y102.619 E16.84506
G1 X120.717 Y117.556 E17.59028
G1 X120.446 Y120.329 E17.72928
G1 X119.443 Y123.623 E17.90107
G1 X117.756 Y126.763 E18.0789
G1 X115.559 Y129.427 E18.25118
G1 X112.919 Y131.6 E18.42176
G1 X109.779 Y133.288 E18.59962
G1 X106.441 Y134.286 E18.77344
G1 X102.966 Y134.63 E18.94765
G1 X99.505 Y134.286 E19.12118
G1 X96.227 Y133.288 E19.29213
G1 X93.043 Y131.578 E19.47244
G1 X90.4 Y129.399 E19.64333
G1 X89.284 Y128.041 E19.73103
G1 X88.144 Y129.423 E19.8204
G1 X85.506 Y131.593 E19.99082
G1 X82.351 Y133.29 E20.16955
G1 X79.021 Y134.286 E20.34296
G1 X75.546 Y134.63 E20.51717
G1 X72.096 Y134.286 E20.69015
G1 X68.787 Y133.28 E20.86269
G1 X65.633 Y131.588 E21.04126
G1 X62.998 Y129.419 E21.21153
G1 X60.774 Y126.703 E21.38666
G1 X59.118 Y123.596 E21.56232
G1 X58.123 Y120.297 E21.73423
G1 X57.816 Y116.836 E21.90757
G1 X57.817 Y104.945 E22.50082
G1 X57.904 Y101.881 E22.65374
G1 X58.173 Y100.362 E22.73071
G1 X58.896 Y99.015 E22.80698
G1 X58.076 Y97.35 E22.89957
G1 X57.846 Y95.611 E22.98709
G1 X57.767 Y83.23 E23.60479
G1 X58.074 Y79.716 E23.78077
G1 X59.095 Y76.362 E23.95568
G1 X60.739 Y73.297 E24.12921
G1 X62.972 Y70.584 E24.30451
G0 F3600 X63.254 Y70.871
G1 F1800 X65.824 Y68.751 E24.47072
G1 X68.906 Y67.114 E24.64483
G1 X72.146 Y66.136 E24.81367
G1 X75.545 Y65.801 E24.98407
G1 X78.943 Y66.135 E25.15442
G1 X82.139 Y67.11 E25.32112
G1 X85.24 Y68.778 E25.49679
G1 X87.803 Y70.884 E25.66229
G1 X89.232 Y72.623 E25.77458
G1 X90.664 Y70.886 E25.88689
G1 X93.248 Y68.76 E26.05384
G1 X96.312 Y67.113 E26.22738
G1 X99.577 Y66.136 E26.39741
G1 X102.965 Y65.801 E26.56727
G1 X106.362 Y66.135 E26.73756
G1 X109.558 Y67.109 E26.90425
G1 X112.661 Y68.778 E27.08003
G1 X115.223 Y70.884 E27.24549
G1 X117.412 Y73.55 E27.41759
G1 X119.028 Y76.585 E27.58913
G1 X120.001 Y79.81 E27.75719
G1 X120.305 Y83.191 E27.92655
G1 X120.305 Y95.898 E28.5605
G1 X119.923 Y97.75 E28.65485
G1 X119.271 Y98.942 E28.72263
G1 X120.133 Y100.677 E28.81928
G1 X120.356 Y102.664 E28.91904
G1 X120.319 Y117.517 E29.66006
G1 X120.052 Y120.248 E29.79696
G1 X119.07 Y123.473 E29.96515
G1 X117.424 Y126.537 E30.13867
G1 X115.275 Y129.143 E30.30719
G1 X112.693 Y131.268 E30.47403
G1 X109.627 Y132.916 E30.64769
G1 X106.363 Y133.892 E30.81765
G1 X102.967 Y134.228 E30.98791
G1 X99.586 Y133.892 E31.15742
G1 X96.377 Y132.915 E31.32477
G1 X93.269 Y131.246 E31.50077
G1 X90.684 Y129.115 E31.66791
G1 X89.284 Y127.411 E31.77794
G1 X87.857 Y129.141 E31.88982
G1 X85.28 Y131.261 E32.0563
G1 X82.199 Y132.918 E32.23083
G1 X78.943 Y133.892 E32.40039
G1 X75.547 Y134.228 E32.57064
G1 X72.176 Y133.892 E32.73965
G1 X68.938 Y132.908 E32.90849
G1 X65.859 Y131.256 E33.08282
G1 X63.28 Y129.133 E33.24947
G1 X61.11 Y126.483 E33.42035
G1 X59.49 Y123.444 E33.59217
G1 X58.517 Y120.218 E33.76027
G1 X58.216 Y116.836 E33.92967
G1 X58.217 Y104.956 E34.52236
G1 X58.298 Y101.951 E34.67234
G1 X58.556 Y100.496 E34.74606
G1 X59.346 Y99.023 E34.82945
G1 X58.464 Y97.233 E34.92901
G1 X58.243 Y95.559 E35.01325
G1 X58.167 Y83.228 E35.62846
G1 X58.468 Y79.795 E35.80039
G1 X59.467 Y76.513 E35.97154
G1 X61.071 Y73.523 E36.14082
G1 X63.254 Y70.871 E36.31219
G0 F3600 X63.538 Y71.155
G1 F1800 X66.048 Y69.085 E36.47451
G1 X69.058 Y67.486 E36.64455
G1 X72.226 Y66.53 E36.80964
G1 X75.545 Y66.203 E36.97603
G1 X78.861 Y66.529 E37.14226
G1 X81.989 Y67.483 E37.30542
G1 X85.014 Y69.11 E37.47678
G1 X87.519 Y71.168 E37.63852
G1 X89.232 Y73.252 E37.77311
G1 X90.948 Y71.17 E37.90772
G1 X93.474 Y69.092 E38.0709
G1 X96.464 Y67.485 E38.24025
G1 X99.655 Y66.53 E38.40643
G1 X102.965 Y66.203 E38.57237
G1 X106.281 Y66.529 E38.7386
G1 X109.408 Y67.482 E38.90169
G1 X112.435 Y69.11 E39.07317
G1 X114.939 Y71.168 E39.23487
G1 X117.078 Y73.773 E39.40303
G1 X118.656 Y76.737 E39.57056
G1 X119.607 Y79.889 E39.73482
G1 X119.905 Y83.191 E39.90022
G1 X119.905 Y95.856 E40.53208
G1 X119.543 Y97.611 E40.62148
G1 X118.801 Y98.967 E40.6986
G1 X118.929 Y99.147 E40.70962
G1 X119.744 Y100.794 E40.8013
G1 X119.956 Y102.663 E40.89514
G1 X119.921 Y117.478 E41.63427
G1 X119.658 Y120.167 E41.76906
G1 X118.697 Y123.323 E41.93365
G1 X117.092 Y126.311 E42.10287
G1 X114.991 Y128.859 E42.26763
G1 X112.467 Y130.936 E42.43071
G1 X109.475 Y132.544 E42.60017
G1 X106.285 Y133.498 E42.76629
G1 X102.968 Y133.826 E42.93258
G1 X99.667 Y133.498 E43.09808
G1 X96.527 Y132.542 E43.26183
G1 X93.495 Y130.914 E43.43353
G1 X90.968 Y128.831 E43.59691
G1 X89.285 Y126.781 E43.72923
G1 X87.573 Y128.857 E43.86348
G1 X85.054 Y130.929 E44.02621
G1 X82.047 Y132.546 E44.19654
G1 X78.865 Y133.498 E44.36225
G1 X75.548 Y133.826 E44.52854
G1 X72.256 Y133.498 E44.69359
G1 X69.089 Y132.536 E44.85872
G1 X66.085 Y130.924 E45.02881
G1 X63.562 Y128.847 E45.19184
G1 X61.446 Y126.263 E45.35847
G1 X59.862 Y123.292 E45.52644
G1 X58.911 Y120.139 E45.69075
G1 X58.616 Y116.836 E45.85619
G1 X58.617 Y104.966 E46.44839
G1 X58.692 Y102.021 E46.59536
G1 X58.939 Y100.63 E46.66584
G1 X59.826 Y98.976 E46.75948
G1 X59.649 Y98.733 E46.77448
G1 X58.852 Y97.116 E46.86442
G1 X58.64 Y95.507 E46.94539
G1 X58.567 Y83.226 E47.5581
G1 X58.862 Y79.876 E47.72588
G1 X59.839 Y76.667 E47.89323
G1 X61.406 Y73.745 E48.05865
G1 X63.538 Y71.155 E48.22601
G0 F3600 X63.82 Y71.442
G1 F1800 X66.274 Y69.418 E48.38471
G1 X69.21 Y67.858 E48.55058
G1 X72.306 Y66.924 E48.71192
G1 X75.545 Y66.605 E48.87429
G1 X78.779 Y66.923 E49.03642
G1 X81.839 Y67.856 E49.19602
G1 X84.788 Y69.442 E49.36307
G1 X87.235 Y71.452 E49.52106
G1 X89.231 Y73.881 E49.67791
G1 X91.232 Y71.454 E49.83484
G1 X93.7 Y69.424 E49.99427
G1 X96.616 Y67.857 E50.15943
G1 X99.733 Y66.924 E50.32175
G1 X102.965 Y66.605 E50.48378
G1 X106.2 Y66.923 E50.64595
G1 X109.258 Y67.855 E50.80544
G1 X112.209 Y69.442 E50.97261
G1 X114.655 Y71.452 E51.13056
G1 X116.744 Y73.996 E51.29479
G1 X118.285 Y76.89 E51.45836
G1 X119.213 Y79.967 E51.6187
G1 X119.505 Y83.191 E51.78021
G1 X119.505 Y95.814 E52.40997
G1 X119.163 Y97.472 E52.49443
G1 X118.326 Y99.002 E52.58144
G1 X118.571 Y99.324 E52.60162
G1 X119.355 Y100.908 E52.6898
G1 X119.556 Y102.662 E52.77788
G1 X119.523 Y117.439 E53.51511
G1 X119.264 Y120.086 E53.6478
G1 X118.324 Y123.173 E53.80879
G1 X116.76 Y126.085 E53.9737
G1 X114.707 Y128.575 E54.13471
G1 X112.241 Y130.604 E54.29403
G1 X109.323 Y132.172 E54.45929
G1 X106.207 Y133.104 E54.62156
G1 X102.969 Y133.424 E54.78389
G1 X99.748 Y133.104 E54.94538
G1 X96.677 Y132.169 E55.10553
G1 X93.721 Y130.582 E55.27292
G1 X91.252 Y128.547 E55.43254
G1 X89.286 Y126.151 E55.58717
G1 X87.289 Y128.573 E55.74378
G1 X84.828 Y130.597 E55.90275
G1 X81.895 Y132.174 E56.06889
G1 X78.787 Y133.104 E56.23074
G1 X75.549 Y133.424 E56.39307
G1 X72.336 Y133.104 E56.55416
G1 X69.24 Y132.164 E56.71559
G1 X66.311 Y130.592 E56.88143
G1 X63.844 Y128.561 E57.04085
G1 X61.782 Y126.043 E57.20323
G1 X60.233 Y123.138 E57.36747
G1 X59.305 Y120.061 E57.52781
G1 X59.016 Y116.836 E57.68936
G1 X59.017 Y104.976 E58.28105
G1 X59.086 Y102.091 E58.42503
G1 X59.322 Y100.761 E58.49242
G1 X60.301 Y98.936 E58.59574
G1 X60.008 Y98.556 E58.61968
G1 X59.24 Y96.999 E58.7063
G1 X59.037 Y95.455 E58.78399
G1 X58.967 Y83.224 E59.39421
G1 X59.256 Y79.956 E59.55788
G1 X60.211 Y76.818 E59.72153
G1 X61.738 Y73.971 E59.88271
G1 X63.82 Y71.442 E60.04613
G0 F3600 X64.102 Y71.729
G1 F1800 X66.5 Y69.751 E60.20122
G1 X69.362 Y68.23 E60.36292
G1 X72.385 Y67.318 E60.52045
G1 X75.545 Y67.007 E60.67886
G1 X78.697 Y67.317 E60.83688
G1 X81.689 Y68.229 E60.99293
G1 X84.562 Y69.774 E61.15567
G1 X86.951 Y71.736 E61.3099
G1 X88.965 Y74.188 E61.46821
G1 X89.237 Y74.682 E61.49634
G1 X89.515 Y74.165 E61.52563
G1 X91.516 Y71.738 E61.68256
G1 X93.926 Y69.756 E61.83823
G1 X96.768 Y68.229 E61.99919
G1 X99.811 Y67.318 E62.15767
G1 X102.965 Y67.007 E62.31578
G1 X106.119 Y67.317 E62.47389
G1 X109.108 Y68.228 E62.62979
G1 X111.983 Y69.774 E62.79265
G1 X114.371 Y71.736 E62.94684
G1 X116.41 Y74.219 E63.10713
G1 X117.913 Y77.042 E63.26669
G1 X118.819 Y80.046 E63.42323
G1 X119.105 Y83.191 E63.58078
G1 X119.105 Y95.772 E64.20845
G1 X118.783 Y97.333 E64.28797
G1 X118.049 Y98.674 E64.36424
G1 X117.803 Y98.987 E64.3841
G1 X118.213 Y99.501 E64.4169
G1 X118.966 Y101.022 E64.50157
G1 X119.156 Y102.661 E64.58389
G1 X119.125 Y117.4 E65.31922
G1 X118.87 Y120.005 E65.44981
G1 X117.951 Y123.023 E65.6072
G1 X116.428 Y125.859 E65.7678
G1 X114.423 Y128.291 E65.92505
G1 X112.015 Y130.272 E66.08062
G1 X109.171 Y131.8 E66.24169
G1 X106.129 Y132.71 E66.4001
G1 X102.97 Y133.022 E66.55847
G1 X99.829 Y132.71 E66.71595
G1 X96.827 Y131.796 E66.8725
G1 X93.947 Y130.25 E67.03558
G1 X91.536 Y128.263 E67.19145
G1 X89.548 Y125.84 E67.34782
G1 X89.284 Y125.345 E67.3758
G1 X88.985 Y125.888 E67.40673
G1 X87.005 Y128.289 E67.56199
G1 X84.602 Y130.265 E67.71721
G1 X81.743 Y131.802 E67.87915
G1 X78.709 Y132.71 E68.03715
G1 X75.55 Y133.022 E68.19552
G1 X72.416 Y132.71 E68.35265
G1 X69.391 Y131.792 E68.51036
G1 X66.537 Y130.26 E68.67197
G1 X64.126 Y128.275 E68.82777
G1 X62.118 Y125.823 E68.98589
G1 X60.605 Y122.986 E69.1463
G1 X59.699 Y119.982 E69.30284
G1 X59.416 Y116.836 E69.46042
G1 X59.417 Y104.985 E70.05167
G1 X59.48 Y102.161 E70.1926
G1 X59.705 Y100.892 E70.2569
G1 X60.617 Y99.192 E70.35314
G1 X60.833 Y98.962 E70.36889
G1 X60.367 Y98.379 E70.40612
G1 X59.627 Y96.879 E70.48957
G1 X59.437 Y95.453 E70.56134
G1 X59.367 Y83.222 E71.17156
G1 X59.65 Y80.036 E71.33113
G1 X60.582 Y76.973 E71.49086
G1 X62.073 Y74.193 E71.64825
G1 X64.102 Y71.729 E71.80749
G0 F3600 X64.386 Y72.013
G1 F1800 X66.724 Y70.085 E71.95868
G1 X69.514 Y68.602 E72.11632
G1 X72.464 Y67.712 E72.27004
G1 X75.545 Y67.409 E72.4245
G1 X78.616 Y67.711 E72.57845
G1 X81.539 Y68.602 E72.7309
G1 X84.336 Y70.106 E72.88934
G1 X86.667 Y72.02 E73.03981
G1 X88.656 Y74.442 E73.19617
G1 X89.236 Y75.53 E73.25768
G1 X89.847 Y74.391 E73.32217
G1 X91.8 Y72.022 E73.47534
G1 X94.152 Y70.088 E73.62726
G1 X96.92 Y68.601 E73.78402
G1 X99.889 Y67.712 E73.93864
G1 X102.965 Y67.409 E74.09285
G1 X106.038 Y67.711 E74.2469
G1 X108.958 Y68.601 E74.3992
G1 X111.757 Y70.106 E74.55775
G1 X114.087 Y72.02 E74.70818
G1 X116.076 Y74.442 E74.86454
G1 X117.541 Y77.194 E75.02008
G1 X118.425 Y80.125 E75.17281
G1 X118.705 Y83.191 E75.32641
G1 X118.705 Y95.73 E75.95199
G1 X118.403 Y97.196 E76.02666
G1 X117.734 Y98.427 E76.09656
G1 X117.293 Y98.99 E76.13224
G1 X117.874 Y99.718 E76.17871
G1 X118.577 Y101.139 E76.2578
G1 X118.756 Y102.66 E76.33421
G1 X118.727 Y117.361 E77.06765
G1 X118.476 Y119.924 E77.19613
G1 X117.578 Y122.873 E77.34992
G1 X116.096 Y125.633 E77.50622
G1 X114.139 Y128.007 E77.65971
G1 X111.789 Y129.94 E77.81152
G1 X109.019 Y131.428 E77.96839
G1 X106.051 Y132.316 E78.12295
G1 X102.971 Y132.62 E78.27736
G1 X99.91 Y132.316 E78.43083
G1 X96.977 Y131.423 E78.58379
G1 X94.173 Y129.918 E78.74255
G1 X91.82 Y127.979 E78.89467
G1 X89.882 Y125.617 E79.0471
G1 X89.285 Y124.498 E79.11037
G1 X88.676 Y125.633 E79.17464
G1 X86.718 Y128.007 E79.32816
G1 X84.376 Y129.933 E79.47944
G1 X81.591 Y131.43 E79.63719
G1 X78.631 Y132.316 E79.79133
G1 X75.551 Y132.62 E79.94574
G1 X72.496 Y132.316 E80.09891
G1 X69.542 Y131.42 E80.25292
G1 X66.763 Y129.928 E80.41028
G1 X64.408 Y127.989 E80.56247
G1 X62.454 Y125.603 E80.71633
G1 X60.977 Y122.834 E80.8729
G1 X60.093 Y119.903 E81.02564
G1 X59.816 Y116.836 E81.17927
G1 X59.817 Y104.993 E81.77012
G1 X59.874 Y102.231 E81.90795
G1 X60.088 Y101.023 E81.96915
G1 X60.969 Y99.381 E82.06212
G1 X61.377 Y99.002 E82.0899
G1 X60.708 Y98.165 E82.14336
G1 X60.015 Y96.762 E82.22143
G1 X59.834 Y95.4 E82.28998
G1 X59.767 Y83.22 E82.89765
G1 X60.044 Y80.115 E83.05317
G1 X60.953 Y77.128 E83.20894
G1 X62.408 Y74.415 E83.36253
G1 X64.386 Y72.013 E83.51777
G0 F3600 X64.668 Y72.3
G1 F1800 X66.95 Y70.418 E83.66534
G1 X69.666 Y68.974 E83.81881
G1 X72.543 Y68.106 E83.96873
G1 X75.545 Y67.811 E84.11922
G1 X78.535 Y68.105 E84.26911
G1 X81.387 Y68.974 E84.41786
G1 X84.112 Y70.44 E84.57223
G1 X86.383 Y72.304 E84.71881
G1 X88.322 Y74.665 E84.87124
G1 X89.234 Y76.378 E84.96805
G1 X90.179 Y74.617 E85.06776
G1 X92.084 Y72.306 E85.21718
G1 X94.378 Y70.42 E85.36534
G1 X97.072 Y68.973 E85.51791
G1 X99.967 Y68.106 E85.66868
G1 X102.965 Y67.811 E85.81897
G1 X105.957 Y68.105 E85.96896
G1 X108.806 Y68.973 E86.11755
G1 X111.533 Y70.44 E86.27204
G1 X113.803 Y72.304 E86.41858
G1 X115.742 Y74.665 E86.571
G1 X117.169 Y77.346 E86.72252
G1 X118.031 Y80.204 E86.87145
G1 X118.305 Y83.191 E87.0211
G1 X118.305 Y95.688 E87.64458
G1 X118.023 Y97.058 E87.71436
G1 X117.419 Y98.18 E87.77793
G1 X116.944 Y98.786 E87.81635
G1 X116.718 Y98.981 E87.83124
G1 X116.929 Y99.175 E87.84554
G1 X117.536 Y99.936 E87.8941
G1 X118.188 Y101.253 E87.96742
G1 X118.356 Y102.659 E88.03806
G1 X118.329 Y117.322 E88.76961
G1 X118.082 Y119.843 E88.89598
G1 X117.205 Y122.723 E89.04618
G1 X115.764 Y125.407 E89.19816
G1 X113.855 Y127.723 E89.3479
G1 X111.563 Y129.608 E89.49595
G1 X108.867 Y131.056 E89.64863
G1 X105.973 Y131.922 E89.79934
G1 X102.972 Y132.218 E89.94979
G1 X99.991 Y131.922 E90.09924
G1 X97.127 Y131.05 E90.2486
G1 X94.399 Y129.586 E90.40306
