;FLAVOR:Marlin
;TIME:15347
;Filament used: 30.4496m, 0m
;Layer height: 0.4
;MINX:67.312
;MINY:21.701
;MINZ:0.3
;MAXX:232.758
;MAXY:278.254
;MAXZ:15.1
;TARGET_MACHINE.NAME:Creality CR-X
;Generated with Cura_SteamEngine 5.5.0
T0
M82 ;absolute extrusion mode
G21 ;metric values
G28 ;home all
G90 ;absolute positioning
M107 ;start with the fan off
G1 F2400 Z15.0 ;raise the nozzle 15mm
M109 S200 ;Set Extruder Temperature and Wait
M190 S60; Wait for bed temperature to reach target temp
T0 ;Switch to Extruder 1
G1 F3000 X5 Y10 Z0.2 ;move to prime start position
G92 E0 ;reset extrusion distance
G1 F600 X160 E15 ;prime nozzle in a line
G1 F5000 X180 ;quick wipe
G92 E0 ;reset extrusion distance
G92 E0

T0 ;switch to extruder 1
G92 E0 ;reset extruder distance
G1 F2000 E93 ;load filament
G92 E0 ;reset extruder distance
M104 S200
G92 E0
G1 F4200 E-3
;LAYER_COUNT:38
;LAYER:0
M107
G0 F3600 X71.67 Y38.654 Z0.3
;TYPE:SKIRT
G1 F4200 E0
G1 F1800 X72.767 Y36.892 E0.10355
G1 X82.243 Y27.136 E0.78208
G1 X84.321 Y25.916 E0.9023
G1 X98.194 Y22.236 E1.61837
G1 X112.415 Y21.701 E2.32836
G1 X114.578 Y22.163 E2.4387
G1 X126.993 Y28.182 E3.12704
G1 X128.978 Y29.831 E3.25579
G1 X130.147 Y31.98 E3.37784
G1 X135.381 Y49.641 E4.29683
G1 X145.09 Y115.086 E7.59763
G1 X156.461 Y187.113 E11.23558
G1 X202.765 Y169.448 E13.70809
G1 X204.764 Y169.277 E13.80819
G1 X206.463 Y169.48 E13.89355
G1 X208.285 Y170.115 E13.98982
G1 X215.847 Y175.252 E14.4459
G1 X221.968 Y181.003 E14.86492
G1 X226.736 Y186.934 E15.24458
G1 X230.339 Y193.948 E15.63798
G1 X232.353 Y201.61 E16.03323
G1 X232.758 Y209.02 E16.40346
G1 X231.947 Y218.218 E16.86413
G1 X229.83 Y226.552 E17.29312
G1 X228.719 Y228.46 E17.40328
G1 X227.403 Y229.781 E17.4963
G1 X225.934 Y230.746 E17.58399
G1 X112.273 Y274.044 E23.65207
G1 X93.931 Y278.254 E24.59095
G1 X92.047 Y278.157 E24.68507
G1 X90.612 Y277.896 E24.75784
G1 X88.703 Y276.986 E24.86335
G1 X78.711 Y268.835 E25.50668
G1 X77.559 Y267.591 E25.59126
G1 X70.969 Y254.832 E26.3077
G1 X67.4 Y241.078 E27.01662
G1 X67.312 Y239.32 E27.10444
G1 X69.495 Y226.163 E27.76982
G1 X70.376 Y224.259 E27.87448
G1 X71.316 Y222.982 E27.95359
G1 X72.684 Y221.765 E28.04494
G1 X88.984 Y212.94 E28.96969
G1 X95.308 Y210.035 E29.31689
G1 X80.278 Y124.777 E33.63602
G1 X70.494 Y58.812 E36.96303
G1 X71.099 Y40.833 E37.86051
G1 X71.67 Y38.654 E37.97289
G0 F3600 X72.042 Y38.814
G1 F1800 X73.084 Y37.14 E38.07127
G1 X82.492 Y27.454 E38.74493
G1 X84.476 Y26.289 E38.85972
G1 X98.254 Y22.634 E39.57088
G1 X112.382 Y22.103 E40.27622
G1 X114.446 Y22.544 E40.38152
G1 X126.774 Y28.521 E41.06504
G1 X128.665 Y30.091 E41.18766
G1 X129.774 Y32.13 E41.30346
G1 X134.997 Y49.755 E42.22058
G1 X144.695 Y115.145 E45.51858
G1 X156.143 Y187.663 E49.18132
G1 X202.855 Y169.842 E51.67563
G1 X204.761 Y169.679 E51.77107
G1 X206.37 Y169.871 E51.85191
G1 X208.104 Y170.476 E51.94354
G1 X215.622 Y175.583 E52.39697
G1 X221.656 Y181.254 E52.81009
G1 X226.399 Y187.154 E53.18776
G1 X229.963 Y194.092 E53.5769
G1 X231.956 Y201.675 E53.96806
G1 X232.359 Y209.042 E54.33616
G1 X231.559 Y218.119 E54.79076
G1 X229.455 Y226.4 E55.21703
G1 X228.398 Y228.216 E55.32186
G1 X227.151 Y229.468 E55.41002
G1 X225.751 Y230.387 E55.49357
G1 X112.184 Y273.654 E61.55672
G1 X93.898 Y277.851 E62.49273
G1 X92.119 Y277.763 E62.58159
G1 X90.734 Y277.511 E62.65183
G1 X88.919 Y276.646 E62.75214
G1 X78.964 Y268.525 E63.39309
G1 X77.889 Y267.359 E63.47221
G1 X71.345 Y254.688 E64.1837
G1 X67.798 Y241.021 E64.88814
G1 X67.714 Y239.342 E64.97201
G1 X69.881 Y226.281 E65.63253
G1 X70.722 Y224.463 E65.73247
G1 X71.612 Y223.254 E65.80737
G1 X72.916 Y222.094 E65.89444
G1 X89.174 Y213.292 E66.8168
G1 X95.755 Y210.269 E67.17811
G1 X80.674 Y124.718 E71.51207
G1 X70.895 Y58.788 E74.83732
G1 X71.497 Y40.891 E75.73071
G1 X72.042 Y38.814 E75.83784
G0 F3600 X72.413 Y38.975
G1 F1800 X73.401 Y37.388 E75.9311
G1 X82.743 Y27.77 E76.60004
G1 X84.629 Y26.663 E76.70914
G1 X98.314 Y23.032 E77.41551
G1 X112.349 Y22.505 E78.11622
G1 X114.314 Y22.925 E78.21647
G1 X126.555 Y28.86 E78.89517
G1 X128.352 Y30.352 E79.01169
G1 X129.401 Y32.28 E79.1212
G1 X134.613 Y49.869 E80.03643
G1 X144.3 Y115.204 E83.33164
G1 X155.825 Y188.213 E87.01918
G1 X202.945 Y170.236 E89.53528
G1 X204.757 Y170.081 E89.62601
G1 X206.277 Y170.263 E89.70239
G1 X207.923 Y170.837 E89.78936
G1 X215.397 Y175.914 E90.24013
G1 X221.344 Y181.505 E90.64736
G1 X226.062 Y187.374 E91.02304
G1 X229.587 Y194.236 E91.40792
G1 X231.559 Y201.74 E91.79501
G1 X231.96 Y209.064 E92.16095
G1 X231.171 Y218.021 E92.60955
G1 X229.081 Y226.247 E93.03298
G1 X228.077 Y227.972 E93.13256
G1 X226.899 Y229.155 E93.21585
G1 X225.568 Y230.029 E93.29529
G1 X112.095 Y273.264 E99.35348
G1 X93.864 Y277.448 E100.28668
G1 X92.191 Y277.369 E100.37024
G1 X90.856 Y277.126 E100.43794
G1 X89.135 Y276.306 E100.53304
G1 X79.217 Y268.215 E101.17162
G1 X78.219 Y267.127 E101.24528
G1 X71.721 Y254.544 E101.95181
G1 X68.196 Y240.964 E102.65178
G1 X68.116 Y239.364 E102.7317
G1 X70.267 Y226.399 E103.38737
G1 X71.068 Y224.667 E103.48257
G1 X71.908 Y223.526 E103.55326
G1 X73.148 Y222.423 E103.63605
G1 X89.364 Y213.644 E104.55602
G1 X96.202 Y210.503 E104.93144
G1 X81.07 Y124.659 E109.28025
G1 X71.296 Y58.764 E112.60373
G1 X71.896 Y40.948 E113.49308
G1 X72.413 Y38.975 E113.59483
G0 F3600 X72.785 Y39.135
G1 F1800 X73.718 Y37.636 E113.68292
G1 X82.992 Y28.088 E114.34699
G1 X84.784 Y27.036 E114.45066
G1 X98.374 Y23.43 E115.15213
G1 X112.316 Y22.907 E115.84819
G1 X114.183 Y23.306 E115.94344
G1 X126.334 Y29.197 E116.61714
G1 X128.039 Y30.613 E116.72771
G1 X129.028 Y32.43 E116.83092
G1 X134.229 Y49.983 E117.74428
G1 X143.905 Y115.263 E121.03669
G1 X155.507 Y188.763 E124.74902
G1 X203.035 Y170.63 E127.28692
G1 X204.754 Y170.483 E127.37299
G1 X206.184 Y170.654 E127.44484
G1 X207.742 Y171.198 E127.52718
G1 X215.172 Y176.245 E127.97529
G1 X221.032 Y181.756 E128.37662
G1 X225.725 Y187.594 E128.75032
G1 X229.211 Y194.38 E129.13094
G1 X231.162 Y201.805 E129.51395
G1 X231.561 Y209.086 E129.87774
G1 X230.783 Y217.923 E130.32033
G1 X228.707 Y226.094 E130.74093
G1 X227.756 Y227.728 E130.83525
G1 X226.647 Y228.842 E130.91367
G1 X225.385 Y229.671 E130.98901
G1 X112.006 Y272.874 E137.04225
G1 X93.829 Y277.046 E137.97269
G1 X92.263 Y276.975 E138.05089
G1 X90.978 Y276.741 E138.11606
G1 X89.351 Y275.966 E138.20597
G1 X79.512 Y267.944 E138.83931
G1 X78.548 Y266.894 E138.91043
G1 X72.097 Y254.401 E139.6119
G1 X68.594 Y240.906 E140.30748
G1 X68.518 Y239.386 E140.38341
G1 X70.653 Y226.517 E141.03422
G1 X71.414 Y224.871 E141.12469
G1 X72.204 Y223.798 E141.19117
G1 X73.38 Y222.752 E141.26969
G1 X89.554 Y213.996 E142.18727
G1 X96.649 Y210.737 E142.57679
G1 X81.466 Y124.6 E146.94044
G1 X71.697 Y58.74 E150.26215
G1 X72.294 Y41.006 E151.14741
G1 X72.785 Y39.135 E151.24391
G0 F3600 X73.156 Y39.296
G1 F1800 X74.035 Y37.884 E151.32689
G1 X83.241 Y28.406 E151.98609
G1 X84.939 Y27.409 E152.08433
G1 X98.434 Y23.828 E152.7809
G1 X112.283 Y23.309 E153.47231
G1 X114.052 Y23.687 E153.56256
G1 X126.113 Y29.534 E154.23127
G1 X127.726 Y30.874 E154.33588
G1 X128.657 Y32.584 E154.43302
G1 X133.833 Y50.042 E155.34148
G1 X143.51 Y115.322 E158.6339
G1 X155.189 Y189.313 E162.37103
G1 X203.125 Y171.024 E164.93072
G1 X204.751 Y170.885 E165.01213
G1 X206.09 Y171.045 E165.07941
G1 X207.561 Y171.559 E165.15715
G1 X214.898 Y176.537 E165.5995
G1 X220.72 Y182.007 E165.99804
G1 X225.388 Y187.814 E166.36976
G1 X228.835 Y194.524 E166.74611
G1 X230.765 Y201.87 E167.12504
G1 X231.162 Y209.108 E167.48669
G1 X230.395 Y217.825 E167.92326
G1 X228.333 Y225.941 E168.34103
G1 X227.436 Y227.482 E168.42999
G1 X226.392 Y228.531 E168.50383
G1 X225.202 Y229.313 E168.57487
G1 X111.917 Y272.484 E174.62316
G1 X93.794 Y276.644 E175.55084
G1 X92.281 Y276.575 E175.6264
G1 X91.103 Y276.357 E175.68617
G1 X89.567 Y275.626 E175.77104
G1 X79.765 Y267.634 E176.40201
G1 X78.879 Y266.663 E176.46759
G1 X72.473 Y254.258 E177.16412
G1 X68.992 Y240.848 E177.85532
G1 X68.92 Y239.408 E177.92726
G1 X71.039 Y226.635 E178.57321
G1 X71.76 Y225.075 E178.65895
G1 X72.5 Y224.07 E178.72122
G1 X73.612 Y223.081 E178.79546
G1 X89.744 Y214.348 E179.71065
G1 X97.096 Y210.971 E180.11429
G1 X81.862 Y124.541 E184.49277
G1 X72.098 Y58.716 E187.81272
G1 X72.693 Y41.063 E188.69394
G1 X73.156 Y39.296 E188.78507
G0 F3600 X73.528 Y39.456
G1 F1800 X74.352 Y38.132 E188.86287
G1 X83.49 Y28.724 E189.5172
G1 X85.094 Y27.782 E189.61
G1 X98.494 Y24.226 E190.30167
G1 X112.25 Y23.711 E190.98844
G1 X113.919 Y24.067 E191.07358
G1 X125.894 Y29.873 E191.73753
G1 X127.413 Y31.135 E191.83606
G1 X128.286 Y32.738 E191.92712
G1 X133.437 Y50.101 E192.83068
G1 X143.115 Y115.381 E196.12311
G1 X154.871 Y189.863 E199.88504
G1 X203.215 Y171.418 E202.46652
G1 X204.748 Y171.287 E202.54328
G1 X205.996 Y171.436 E202.60598
G1 X207.38 Y171.92 E202.67913
G1 X214.673 Y176.868 E203.11882
G1 X220.408 Y182.258 E203.51147
G1 X225.051 Y188.034 E203.88119
G1 X228.459 Y194.668 E204.25328
G1 X230.368 Y201.935 E204.62814
G1 X230.763 Y209.13 E204.98764
G1 X230.007 Y217.727 E205.4182
G1 X227.959 Y225.788 E205.83314
G1 X227.115 Y227.238 E205.91684
G1 X226.139 Y228.218 E205.98585
G1 X225.019 Y228.955 E206.05274
G1 X111.828 Y272.094 E212.09608
G1 X93.759 Y276.242 E213.021
G1 X92.299 Y276.175 E213.09391
G1 X91.227 Y275.973 E213.14834
G1 X89.783 Y275.286 E213.22811
G1 X80.061 Y267.364 E213.85378
G1 X79.209 Y266.43 E213.91686
G1 X72.849 Y254.115 E214.60835
G1 X69.39 Y240.79 E215.29517
G1 X69.322 Y239.43 E215.36311
G1 X71.425 Y226.753 E216.00421
G1 X72.106 Y225.279 E216.08522
G1 X72.796 Y224.342 E216.14327
G1 X73.844 Y223.41 E216.21324
G1 X89.934 Y214.7 E217.12604
G1 X97.543 Y211.205 E217.54379
G1 X82.258 Y124.482 E221.9371
G1 X72.499 Y58.692 E225.2553
G1 X73.091 Y41.121 E226.13241
G1 X73.528 Y39.456 E226.21829
G0 F3600 X73.899 Y39.617
G1 F1800 X74.669 Y38.38 E226.29099
G1 X83.741 Y29.04 E226.94059
G1 X85.247 Y28.156 E227.02771
G1 X98.554 Y24.624 E227.71459
G1 X112.218 Y24.113 E228.39676
G1 X113.788 Y24.448 E228.47686
G1 X125.673 Y30.21 E229.13581
G1 X127.1 Y31.396 E229.22838
G1 X127.915 Y32.892 E229.31337
G1 X133.041 Y50.16 E230.21204
G1 X142.72 Y115.44 E233.50447
G1 X154.553 Y190.413 E237.29119
G1 X203.305 Y171.812 E239.89446
G1 X204.745 Y171.689 E239.96657
G1 X205.902 Y171.827 E240.0247
G1 X207.199 Y172.281 E240.09326
G1 X214.448 Y177.199 E240.53029
G1 X220.096 Y182.509 E240.91704
G1 X224.714 Y188.254 E241.28478
G1 X228.083 Y194.812 E241.65261
G1 X229.971 Y202 E242.02338
G1 X230.364 Y209.152 E242.38074
G1 X229.619 Y217.629 E242.80529
G1 X227.585 Y225.635 E243.2174
G1 X226.794 Y226.994 E243.29585
G1 X225.886 Y227.905 E243.36002
G1 X224.836 Y228.597 E243.42275
G1 X111.738 Y271.704 E249.46119
G1 X93.723 Y275.84 E250.38335
G1 X92.317 Y275.775 E250.45357
G1 X91.351 Y275.589 E250.50265
G1 X89.999 Y274.946 E250.57734
G1 X80.357 Y267.094 E251.19771
G1 X79.539 Y266.197 E251.25828
G1 X73.225 Y253.972 E251.94473
G1 X69.788 Y240.732 E252.62717
G1 X69.724 Y239.452 E252.69111
G1 X71.811 Y226.871 E253.32735
G1 X72.452 Y225.483 E253.40363
G1 X73.092 Y224.614 E253.45747
G1 X74.076 Y223.739 E253.52317
G1 X90.124 Y215.052 E254.43358
G1 X97.99 Y211.439 E254.86543
G1 X82.654 Y124.423 E259.27359
G1 X72.9 Y58.668 E262.59001
G1 X73.49 Y41.178 E263.46309
G1 X73.899 Y39.617 E263.5436
G0 F3600 X74.271 Y39.777
G1 F1800 X74.986 Y38.628 E263.61111
G1 X83.99 Y29.358 E264.25585
G1 X85.402 Y28.529 E264.33754
G1 X98.614 Y25.022 E265.01951
G1 X112.185 Y24.515 E265.69704
G1 X113.656 Y24.829 E265.77209
G1 X125.454 Y30.549 E266.42622
G1 X126.787 Y31.657 E266.5127
G1 X127.544 Y33.046 E266.59162
G1 X132.645 Y50.219 E267.48538
G1 X142.325 Y115.499 E270.77782
G1 X154.235 Y190.963 E274.58934
G1 X203.395 Y172.206 E277.2144
G1 X204.741 Y172.091 E277.2818
G1 X205.809 Y172.219 E277.33546
G1 X207.018 Y172.642 E277.39937
G1 X214.223 Y177.53 E277.83374
G1 X219.784 Y182.76 E278.2146
G1 X224.377 Y188.474 E278.58035
G1 X227.707 Y194.956 E278.94392
G1 X229.574 Y202.065 E279.31062
G1 X229.965 Y209.174 E279.66582
G1 X229.231 Y217.531 E280.08436
G1 X227.211 Y225.482 E280.49364
G1 X226.474 Y226.748 E280.56672
G1 X225.63 Y227.594 E280.62634
G1 X224.653 Y228.239 E280.68475
G1 X111.648 Y271.314 E286.71828
G1 X93.687 Y275.438 E287.63768
G1 X92.393 Y275.382 E287.7023
G1 X91.475 Y275.205 E287.74894
G1 X90.213 Y274.605 E287.81865
G1 X80.653 Y266.825 E288.43358
G1 X79.87 Y265.966 E288.49157
G1 X73.601 Y253.829 E289.17309
G1 X70.186 Y240.674 E289.85115
G1 X70.126 Y239.474 E289.9111
G1 X72.198 Y226.987 E290.54259
G1 X72.797 Y225.688 E290.61396
G1 X73.388 Y224.886 E290.66366
G1 X74.308 Y224.068 E290.72508
G1 X90.314 Y215.404 E291.6331
G1 X98.437 Y211.673 E292.07907
G1 X83.05 Y124.364 E296.50206
G1 X73.301 Y58.644 E299.81672
G1 X73.888 Y41.236 E300.6857
G1 X74.271 Y39.777 E300.76096
G0 F3600 X74.642 Y39.938
G1 F1800 X75.303 Y38.876 E300.82337
G1 X84.239 Y29.676 E301.46323
G1 X85.557 Y28.902 E301.53949
G1 X98.674 Y25.42 E302.21656
G1 X112.152 Y24.917 E302.88945
G1 X113.524 Y25.21 E302.95944
G1 X125.235 Y30.888 E303.60876
G1 X126.473 Y31.917 E303.68907
G1 X127.174 Y33.202 E303.7621
G1 X132.249 Y50.278 E304.65085
G1 X141.93 Y115.558 E307.9433
G1 X153.917 Y191.513 E311.77961
G1 X203.485 Y172.6 E314.42647
G1 X204.737 Y172.493 E314.48916
G1 X205.716 Y172.611 E314.53836
G1 X206.837 Y173.003 E314.5976
G1 X213.998 Y177.861 E315.02932
G1 X219.472 Y183.011 E315.40428
G1 X224.04 Y188.694 E315.76805
G1 X227.331 Y195.1 E316.12735
G1 X229.177 Y202.13 E316.48997
G1 X229.566 Y209.196 E316.84303
G1 X228.843 Y217.433 E317.25556
G1 X226.837 Y225.329 E317.662
G1 X226.153 Y226.504 E317.72983
G1 X225.377 Y227.282 E317.78465
G1 X224.47 Y227.881 E317.83888
G1 X111.558 Y270.924 E323.86751
G1 X93.65 Y275.036 E324.7842
G1 X92.469 Y274.989 E324.84317
G1 X91.599 Y274.821 E324.88737
G1 X90.427 Y274.264 E324.95211
G1 X80.949 Y266.556 E325.5616
G1 X80.201 Y265.735 E325.61701
G1 X73.977 Y253.686 E326.2936
G1 X70.584 Y240.616 E326.96728
G1 X70.528 Y239.496 E327.02323
G1 X72.585 Y227.103 E327.64998
G1 X73.142 Y225.893 E327.71643
G1 X73.684 Y225.158 E327.76199
G1 X74.54 Y224.397 E327.81914
G1 X90.504 Y215.756 E328.72477
G1 X98.884 Y211.907 E329.18484
G1 X83.446 Y124.305 E333.62267
G1 X73.702 Y58.62 E336.93557
G1 X74.287 Y41.293 E337.80051
G1 X74.642 Y39.938 E337.87039
G0 F3600 X75.014 Y40.097
G1 F1800 X75.619 Y39.126 E337.92747
G1 X84.49 Y29.992 E338.56271
G1 X85.71 Y29.276 E338.63329
G1 X98.734 Y25.818 E339.30557
G1 X112.119 Y25.319 E339.97381
G1 X113.392 Y25.591 E340.03876
G1 X125.016 Y31.227 E340.68325
G1 X126.159 Y32.177 E340.7574
G1 X126.804 Y33.359 E340.82458
G1 X131.853 Y50.337 E341.70828
G1 X141.535 Y115.617 E345.00074
G1 X153.599 Y192.063 E348.86184
G1 X203.575 Y172.994 E351.53049
G1 X204.733 Y172.895 E351.58848
G1 X205.623 Y173.003 E351.6332
G1 X206.656 Y173.364 E351.6878
G1 X213.773 Y178.192 E352.11686
G1 X219.16 Y183.262 E352.48592
G1 X223.703 Y188.914 E352.8477
G1 X226.955 Y195.244 E353.20274
G1 X228.78 Y202.195 E353.56129
G1 X229.167 Y209.218 E353.9122
G1 X228.455 Y217.335 E354.31871
G1 X226.463 Y225.176 E354.72232
G1 X225.832 Y226.26 E354.7849
G1 X225.124 Y226.97 E354.83493
G1 X224.287 Y227.523 E354.88497
G1 X111.468 Y270.534 E360.9087
G1 X93.613 Y274.634 E361.82267
G1 X92.485 Y274.589 E361.879
G1 X91.725 Y274.438 E361.91765
G1 X90.641 Y273.923 E361.97753
G1 X81.245 Y266.287 E362.58158
G1 X80.532 Y265.504 E362.63441
G1 X74.353 Y253.543 E363.30607
G1 X70.982 Y240.558 E363.97537
G1 X70.93 Y239.518 E364.02732
G1 X72.971 Y227.22 E364.64926
G1 X73.489 Y226.097 E364.71096
G1 X73.98 Y225.43 E364.75228
G1 X74.772 Y224.726 E364.80515
G1 X90.694 Y216.108 E365.70839
G1 X99.331 Y212.141 E366.18257
G1 X83.842 Y124.246 E370.63524
G1 X74.103 Y58.596 E373.94638
G1 X74.685 Y41.351 E374.80722
G1 X75.014 Y40.097 E374.8719
G0 F3600 X75.385 Y40.259
G1 F1800 X75.937 Y39.373 E374.92398
G1 X84.739 Y30.31 E375.55428
G1 X85.865 Y29.649 E375.61943
G1 X98.794 Y26.216 E376.28681
G1 X112.086 Y25.721 E376.95041
G1 X113.26 Y25.972 E377.0103
G1 X124.797 Y31.566 E377.64998
G1 X125.845 Y32.437 E377.71796
G1 X126.434 Y33.516 E377.77929
G1 X131.457 Y50.396 E378.65793
G1 X141.14 Y115.676 E381.9504
