;FLAVOR:Marlin
;TIME:15338
;Filament used: 30.5124m, 0m
;Layer height: 0.4
;MINX:21.546
;MINY:67.479
;MINZ:0.3
;MAXX:278.462
;MAXY:232.489
;MAXZ:15.1
;TARGET_MACHINE.NAME:Creality CR-X
;Generated with Cura_SteamEngine 5.5.0
T0
M82 ;absolute extrusion mode
G21 ;metric values
G28 ;home all
G90 ;absolute positioning
M107 ;start with the fan off
G1 F2400 Z15.0 ;raise the nozzle 15mm
M109 S200 ;Set Extruder Temperature and Wait
M190 S60; Wait for bed temperature to reach target temp
T0 ;Switch to Extruder 1
G1 F3000 X5 Y10 Z0.2 ;move to prime start position
G92 E0 ;reset extrusion distance
G1 F600 X160 E15 ;prime nozzle in a line
G1 F5000 X180 ;quick wipe
G92 E0 ;reset extrusion distance
G92 E0

T0 ;switch to extruder 1
G92 E0 ;reset extruder distance
G1 F2000 E93 ;load filament
G92 E0 ;reset extruder distance
M104 S200
G92 E0
G1 F4200 E-3
;LAYER_COUNT:38
;LAYER:0
M107
G0 F3600 X37.512 Y69.309 Z0.3
;TYPE:SKIRT
G1 F4200 E0
G1 F1800 X39.656 Y68.124 E0.12222
G1 X41.225 Y67.839 E0.20177
G1 X59.439 Y67.479 E1.11065
G1 X125.397 Y78.518 E4.44708
G1 X210.154 Y95.058 E8.75539
G1 X213.192 Y88.78 E9.10334
G1 X222.363 Y72.55 E10.03339
G1 X223.85 Y71.118 E10.13638
G1 X224.916 Y70.329 E10.20255
G1 X226.869 Y69.548 E10.30749
G1 X239.846 Y67.633 E10.96192
G1 X241.693 Y67.725 E11.05418
G1 X255.364 Y71.544 E11.76235
G1 X267.783 Y78.252 E12.46654
G1 X269.19 Y79.433 E12.55818
G1 X277.156 Y89.633 E13.20387
G1 X278.173 Y91.748 E13.32095
G1 X278.462 Y94.677 E13.46779
G1 X273.674 Y113.715 E14.44717
G1 X248.846 Y175.467 E17.76768
G1 X228.332 Y226.37 E20.50571
G1 X226.885 Y228.091 E20.61789
G1 X225.789 Y229.054 E20.69068
G1 X223.898 Y229.951 E20.7951
G1 X215.673 Y231.868 E21.21644
G1 X206.578 Y232.489 E21.67125
G1 X199.254 Y231.937 E22.03768
G1 X191.636 Y229.802 E22.43239
G1 X184.586 Y226.006 E22.83186
G1 X178.997 Y221.363 E23.19436
G1 X172.824 Y214.496 E23.65503
G1 X168.094 Y207.163 E24.09038
G1 X167.543 Y205.082 E24.19778
G1 X167.377 Y203.795 E24.26252
G1 X167.63 Y201.713 E24.36716
G1 X186.13 Y155.802 E26.83663
G1 X114.314 Y143.126 E30.47493
G1 X49.22 Y132.236 E33.76762
G1 X31.382 Y126.606 E34.70083
G1 X29.368 Y125.373 E34.81865
G1 X29.084 Y125.124 E34.83749
G1 X27.691 Y123.269 E34.95322
G1 X21.98 Y110.924 E35.63183
G1 X21.546 Y108.917 E35.73427
G1 X22.35 Y94.46 E36.45665
G1 X26.275 Y80.712 E37.16995
G1 X27.527 Y78.668 E37.28953
G1 X37.512 Y69.309 E37.9723
G0 F3600 X37.75 Y69.635
G1 F1800 X39.792 Y68.506 E38.08871
G1 X41.296 Y68.233 E38.16497
G1 X59.408 Y67.88 E39.06876
G1 X125.32 Y78.911 E42.40285
G1 X210.379 Y95.51 E46.72651
G1 X213.54 Y88.977 E47.08859
G1 X222.682 Y72.799 E48.01567
G1 X224.088 Y71.44 E48.11323
G1 X225.115 Y70.68 E48.17697
G1 X226.972 Y69.937 E48.27675
G1 X239.864 Y68.035 E48.9269
G1 X241.631 Y68.123 E49.01517
G1 X255.213 Y71.917 E49.71872
G1 X267.559 Y78.585 E50.41876
G1 X268.901 Y79.712 E50.50619
G1 X276.813 Y89.843 E51.1475
G1 X277.782 Y91.859 E51.25909
G1 X278.057 Y94.646 E51.39881
G1 X273.286 Y113.617 E52.37475
G1 X248.475 Y175.318 E55.69258
G1 X227.986 Y226.16 E58.42732
G1 X226.621 Y227.79 E58.53339
G1 X225.565 Y228.717 E58.60349
G1 X223.768 Y229.57 E58.70273
G1 X215.582 Y231.478 E59.12208
G1 X206.608 Y232.09 E59.57084
G1 X199.322 Y231.541 E59.93537
G1 X191.787 Y229.429 E60.32578
G1 X184.813 Y225.674 E60.72094
G1 X179.253 Y221.055 E61.08156
G1 X173.16 Y214.279 E61.53619
G1 X168.465 Y207.001 E61.96829
G1 X167.94 Y205.031 E62.07
G1 X167.78 Y203.792 E62.13233
G1 X168.021 Y201.813 E62.23179
G1 X186.685 Y155.494 E64.7232
G1 X114.38 Y142.731 E68.38628
G1 X49.286 Y131.841 E71.67897
G1 X31.551 Y126.24 E72.60685
G1 X29.577 Y125.032 E72.72231
G1 X29.404 Y124.884 E72.73367
G1 X28.036 Y123.063 E72.8473
G1 X22.362 Y110.797 E73.52155
G1 X21.948 Y108.883 E73.61925
G1 X22.746 Y94.53 E74.33643
G1 X26.645 Y80.873 E75.045
G1 X27.839 Y78.924 E75.15903
G1 X37.75 Y69.635 E75.83672
G0 F3600 X37.99 Y69.959
G1 F1800 X39.926 Y68.889 E75.94708
G1 X41.368 Y68.627 E76.0202
G1 X59.376 Y68.281 E76.91879
G1 X125.243 Y79.304 E80.2506
G1 X210.604 Y95.962 E84.58961
G1 X213.888 Y89.174 E84.96582
G1 X223.002 Y73.045 E85.89008
G1 X224.326 Y71.762 E85.98206
G1 X225.315 Y71.03 E86.04345
G1 X227.074 Y70.327 E86.13795
G1 X239.882 Y68.437 E86.78387
G1 X241.569 Y68.521 E86.86814
G1 X255.062 Y72.29 E87.56707
G1 X267.335 Y78.919 E88.26298
G1 X268.612 Y79.991 E88.34617
G1 X276.472 Y90.056 E88.98329
G1 X277.391 Y91.967 E89.08908
G1 X277.652 Y94.615 E89.22183
G1 X272.898 Y113.519 E90.19432
G1 X248.104 Y175.169 E93.50947
G1 X227.64 Y225.95 E96.24092
G1 X226.314 Y227.533 E96.34395
G1 X225.344 Y228.379 E96.40816
G1 X223.638 Y229.189 E96.50238
G1 X215.491 Y231.088 E96.91973
G1 X206.638 Y231.691 E97.36243
G1 X199.39 Y231.145 E97.72506
G1 X191.938 Y229.056 E98.11117
G1 X185.04 Y225.342 E98.50203
G1 X179.509 Y220.747 E98.86077
G1 X173.496 Y214.062 E99.30936
G1 X168.834 Y206.836 E99.73838
G1 X168.337 Y204.98 E99.83424
G1 X168.183 Y203.789 E99.89415
G1 X168.412 Y201.913 E99.98844
G1 X187.24 Y155.186 E102.50179
G1 X114.446 Y142.336 E106.18965
G1 X49.352 Y131.446 E109.48234
G1 X31.719 Y125.874 E110.40493
G1 X29.786 Y124.691 E110.51799
G1 X29.675 Y124.589 E110.52551
G1 X28.382 Y122.859 E110.63326
G1 X22.744 Y110.67 E111.30328
G1 X22.35 Y108.849 E111.39623
G1 X23.142 Y94.6 E112.10821
G1 X27.015 Y81.034 E112.81207
G1 X28.151 Y79.18 E112.92055
G1 X37.99 Y69.959 E113.59329
G0 F3600 X38.228 Y70.285
G1 F1800 X40.062 Y69.271 E113.69784
G1 X41.439 Y69.021 E113.76767
G1 X59.344 Y68.682 E114.66111
G1 X125.166 Y79.697 E117.99065
G1 X210.83 Y96.414 E122.34506
G1 X214.236 Y89.371 E122.73537
G1 X223.321 Y73.293 E123.6567
G1 X224.564 Y72.084 E123.74321
G1 X225.514 Y71.381 E123.80217
G1 X227.177 Y70.716 E123.89153
G1 X239.9 Y68.839 E124.53315
G1 X241.507 Y68.919 E124.61342
G1 X254.911 Y72.663 E125.30775
G1 X267.111 Y79.252 E125.99951
G1 X268.323 Y80.27 E126.07847
G1 X276.129 Y90.266 E126.71122
G1 X277 Y92.078 E126.81152
G1 X277.247 Y94.584 E126.93715
G1 X272.51 Y113.421 E127.9062
G1 X247.733 Y175.02 E131.21867
G1 X227.294 Y225.74 E133.94683
G1 X226.007 Y227.276 E134.04681
G1 X225.123 Y228.041 E134.10513
G1 X223.508 Y228.808 E134.19433
G1 X215.4 Y230.698 E134.60969
G1 X206.668 Y231.292 E135.04633
G1 X199.458 Y230.749 E135.40706
G1 X192.089 Y228.683 E135.78888
G1 X185.267 Y225.01 E136.17542
G1 X179.765 Y220.439 E136.53229
G1 X173.794 Y213.795 E136.97795
G1 X169.204 Y206.671 E137.40075
G1 X168.734 Y204.929 E137.49077
G1 X168.586 Y203.786 E137.54827
G1 X168.802 Y202.015 E137.63728
G1 X187.796 Y154.878 E140.1727
G1 X114.512 Y141.941 E143.88539
G1 X49.418 Y131.051 E147.17807
G1 X31.887 Y125.508 E148.09537
G1 X29.995 Y124.35 E148.20604
G1 X28.729 Y122.656 E148.31155
G1 X23.125 Y110.542 E148.97746
G1 X22.752 Y108.816 E149.06556
G1 X23.538 Y94.67 E149.77239
G1 X27.385 Y81.195 E150.47152
G1 X28.463 Y79.436 E150.57445
G1 X38.228 Y70.285 E151.24211
G0 F3600 X38.468 Y70.609
G1 F1800 X40.196 Y69.654 E151.34061
G1 X41.511 Y69.415 E151.40729
G1 X59.312 Y69.083 E152.29554
G1 X125.089 Y80.09 E155.6228
G1 X211.056 Y96.866 E159.99261
G1 X214.584 Y89.568 E160.39702
G1 X223.642 Y73.539 E161.31557
G1 X224.802 Y72.406 E161.39646
G1 X225.713 Y71.732 E161.453
G1 X227.28 Y71.105 E161.5372
G1 X239.918 Y69.241 E162.17454
G1 X241.445 Y69.317 E162.25081
G1 X254.76 Y73.036 E162.94053
G1 X266.887 Y79.586 E163.62816
G1 X268.034 Y80.549 E163.70287
G1 X275.788 Y90.479 E164.33143
G1 X276.609 Y92.186 E164.42593
G1 X276.842 Y94.553 E164.54459
G1 X272.122 Y113.323 E165.51018
G1 X247.362 Y174.871 E168.81998
G1 X226.947 Y225.532 E171.54497
G1 X225.745 Y226.973 E171.63859
G1 X224.9 Y227.704 E171.69433
G1 X223.378 Y228.427 E171.7784
G1 X215.309 Y230.308 E172.19175
G1 X206.698 Y230.893 E172.62235
G1 X199.526 Y230.353 E172.98117
G1 X192.24 Y228.31 E173.35869
G1 X185.494 Y224.678 E173.74093
G1 X180.021 Y220.131 E174.09592
G1 X174.13 Y213.578 E174.53554
G1 X169.574 Y206.507 E174.9552
G1 X169.131 Y204.878 E175.03942
G1 X168.989 Y203.784 E175.09446
G1 X169.193 Y202.116 E175.17829
G1 X188.352 Y154.57 E177.73572
G1 X114.578 Y141.546 E181.47323
G1 X49.484 Y130.656 E184.76592
G1 X32.055 Y125.142 E185.67793
G1 X30.268 Y124.048 E185.78246
G1 X29.076 Y122.453 E185.88181
G1 X23.507 Y110.415 E186.54354
G1 X23.154 Y108.782 E186.62689
G1 X23.934 Y94.74 E187.32853
G1 X27.755 Y81.356 E188.02294
G1 X28.775 Y79.692 E188.12031
G1 X38.468 Y70.609 E188.78303
G0 F3600 X38.704 Y70.936
G1 F1800 X40.332 Y70.036 E188.87584
G1 X41.582 Y69.809 E188.93922
G1 X59.28 Y69.484 E189.82233
G1 X125.012 Y80.483 E193.14731
G1 X211.282 Y97.318 E197.53252
G1 X214.932 Y89.765 E197.95103
G1 X223.962 Y73.786 E198.86672
G1 X225.082 Y72.692 E198.94483
G1 X225.911 Y72.083 E198.99615
G1 X227.382 Y71.495 E199.07518
G1 X239.936 Y69.643 E199.70828
G1 X241.383 Y69.715 E199.78056
G1 X254.609 Y73.409 E200.46566
G1 X266.663 Y79.919 E201.14914
G1 X267.745 Y80.828 E201.21964
G1 X275.445 Y90.689 E201.84383
G1 X276.218 Y92.297 E201.93284
G1 X276.437 Y94.522 E202.04438
G1 X271.734 Y113.225 E203.00652
G1 X246.991 Y174.722 E206.31365
G1 X226.6 Y225.324 E209.03545
G1 X225.483 Y226.67 E209.12272
G1 X224.677 Y227.367 E209.17588
G1 X223.248 Y228.046 E209.25481
G1 X215.218 Y229.918 E209.66617
G1 X206.728 Y230.494 E210.09071
G1 X199.594 Y229.957 E210.44764
G1 X192.391 Y227.937 E210.82086
G1 X185.721 Y224.346 E211.19879
G1 X180.277 Y219.823 E211.5519
G1 X174.466 Y213.361 E211.98547
G1 X169.944 Y206.343 E212.40199
G1 X169.528 Y204.826 E212.48047
G1 X169.392 Y203.781 E212.53304
G1 X169.584 Y202.217 E212.61166
G1 X188.908 Y154.262 E215.19108
G1 X114.644 Y141.151 E218.95343
G1 X49.55 Y130.261 E222.24611
G1 X32.223 Y124.776 E223.15284
G1 X30.541 Y123.746 E223.25124
G1 X29.423 Y122.25 E223.34441
G1 X23.889 Y110.288 E224.00197
G1 X23.556 Y108.748 E224.08057
G1 X24.33 Y94.81 E224.77702
G1 X28.125 Y81.517 E225.4667
G1 X29.088 Y79.946 E225.55863
G1 X38.704 Y70.936 E226.21606
G0 F3600 X38.94 Y71.263
G1 F1800 X40.468 Y70.418 E226.30318
G1 X41.653 Y70.203 E226.36326
G1 X59.248 Y69.885 E227.24122
G1 X124.935 Y80.876 E230.56392
G1 X211.508 Y97.77 E234.96453
G1 X215.28 Y89.962 E235.39715
G1 X224.283 Y74.031 E236.31009
G1 X225.319 Y73.014 E236.38252
G1 X226.107 Y72.435 E236.4313
G1 X227.485 Y71.884 E236.50534
G1 X239.954 Y70.045 E237.13415
G1 X241.321 Y70.113 E237.20244
G1 X254.458 Y73.782 E237.88292
G1 X266.439 Y80.253 E238.56227
G1 X267.456 Y81.107 E238.62853
G1 X275.104 Y90.902 E239.24852
G1 X275.827 Y92.405 E239.33173
G1 X276.032 Y94.491 E239.4363
G1 X271.346 Y113.127 E240.395
G1 X246.62 Y174.573 E243.69944
G1 X226.253 Y225.116 E246.41807
G1 X225.221 Y226.368 E246.49902
G1 X224.457 Y227.029 E246.54942
G1 X223.118 Y227.665 E246.62338
G1 X215.127 Y229.528 E247.03274
G1 X206.758 Y230.095 E247.45123
G1 X199.662 Y229.561 E247.80625
G1 X192.542 Y227.564 E248.17518
G1 X185.948 Y224.014 E248.5488
G1 X180.533 Y219.515 E248.90003
G1 X174.802 Y213.144 E249.32756
G1 X170.314 Y206.179 E249.74094
G1 X169.914 Y204.72 E249.81641
G1 X169.795 Y203.779 E249.86373
G1 X169.975 Y202.319 E249.93712
G1 X189.464 Y153.954 E252.5386
G1 X114.71 Y140.756 E256.32577
G1 X49.616 Y129.866 E259.61845
G1 X32.391 Y124.41 E260.51989
G1 X30.814 Y123.444 E260.61216
G1 X29.77 Y122.047 E260.69917
G1 X24.271 Y110.161 E261.35255
G1 X23.958 Y108.714 E261.42641
G1 X24.726 Y94.88 E262.11765
G1 X28.495 Y81.678 E262.80262
G1 X29.401 Y80.2 E262.88911
G1 X38.94 Y71.263 E263.54124
G0 F3600 X39.176 Y71.59
G1 F1800 X40.603 Y70.801 E263.62259
G1 X41.725 Y70.597 E263.67949
G1 X59.216 Y70.286 E264.55226
G1 X124.858 Y81.269 E267.87267
G1 X211.734 Y98.222 E272.28869
G1 X215.628 Y90.159 E272.73541
G1 X224.604 Y74.276 E273.6456
G1 X225.599 Y73.299 E273.71517
G1 X226.301 Y72.788 E273.75849
G1 X227.588 Y72.273 E273.82764
G1 X239.972 Y70.447 E274.45216
G1 X241.259 Y70.511 E274.51645
G1 X254.307 Y74.155 E275.19233
G1 X266.215 Y80.587 E275.86755
G1 X267.167 Y81.386 E275.92955
G1 X274.761 Y91.112 E276.54518
G1 X275.436 Y92.516 E276.6229
G1 X275.627 Y94.46 E276.72035
G1 X270.958 Y113.029 E277.6756
G1 X246.249 Y174.424 E280.97736
G1 X225.906 Y224.908 E283.69282
G1 X224.959 Y226.065 E283.76741
G1 X224.234 Y226.692 E283.81523
G1 X222.988 Y227.284 E283.88405
G1 X215.036 Y229.138 E284.29142
G1 X206.788 Y229.696 E284.70386
G1 X199.73 Y229.165 E285.05698
G1 X192.693 Y227.191 E285.42161
G1 X186.175 Y223.682 E285.79092
G1 X180.789 Y219.207 E286.14027
G1 X175.138 Y212.927 E286.56176
G1 X170.683 Y206.013 E286.9721
G1 X170.311 Y204.67 E287.04163
G1 X170.198 Y203.778 E287.08649
G1 X170.366 Y202.419 E287.1548
G1 X190.019 Y153.646 E289.77821
G1 X114.776 Y140.361 E293.59017
G1 X49.682 Y129.471 E296.88285
G1 X32.559 Y124.044 E297.779
G1 X31.087 Y123.142 E297.86513
G1 X30.117 Y121.844 E297.94597
G1 X24.653 Y110.034 E298.59518
G1 X24.36 Y108.68 E298.6643
G1 X25.122 Y94.95 E299.35034
G1 X28.865 Y81.839 E300.03059
G1 X29.714 Y80.454 E300.11163
G1 X39.176 Y71.59 E300.75848
G0 F3600 X39.412 Y71.917
G1 F1800 X40.739 Y71.183 E300.83413
G1 X41.796 Y70.991 E300.88773
G1 X59.184 Y70.687 E301.75535
G1 X124.781 Y81.662 E305.07349
G1 X211.96 Y98.674 E309.5049
G1 X215.976 Y90.356 E309.96573
G1 X224.925 Y74.521 E310.87317
G1 X225.834 Y73.622 E310.93695
G1 X226.495 Y73.141 E310.97774
G1 X227.691 Y72.662 E311.04201
G1 X239.99 Y70.849 E311.66224
G1 X241.197 Y70.909 E311.72254
G1 X254.156 Y74.528 E312.3938
G1 X265.991 Y80.92 E313.06487
G1 X266.878 Y81.665 E313.12266
G1 X274.418 Y91.322 E313.73391
G1 X275.045 Y92.627 E313.80614
G1 X275.222 Y94.429 E313.89647
G1 X270.57 Y112.931 E314.84827
G1 X245.878 Y174.275 E318.14736
G1 X225.558 Y224.703 E320.85979
G1 X224.697 Y225.763 E320.92793
G1 X224.014 Y226.354 E320.97299
G1 X222.858 Y226.903 E321.03683
G1 X214.945 Y228.748 E321.4422
G1 X206.818 Y229.297 E321.84858
G1 X199.798 Y228.769 E322.1998
G1 X192.844 Y226.818 E322.56014
G1 X186.402 Y223.35 E322.92514
G1 X181.045 Y218.899 E323.27262
G1 X175.474 Y212.71 E323.68806
G1 X171.052 Y205.847 E324.09537
G1 X170.708 Y204.62 E324.15895
G1 X170.601 Y203.777 E324.20134
G1 X170.757 Y202.519 E324.26458
G1 X190.574 Y153.338 E326.90993
G1 X114.842 Y139.966 E330.74666
G1 X49.748 Y129.076 E334.03935
G1 X32.727 Y123.678 E334.93021
G1 X31.36 Y122.84 E335.01021
G1 X30.464 Y121.641 E335.08488
G1 X25.035 Y109.907 E335.72992
G1 X24.762 Y108.646 E335.79429
G1 X25.518 Y95.02 E336.47513
G1 X29.235 Y82 E337.15066
G1 X30.027 Y80.708 E337.22626
G1 X39.412 Y71.917 E337.86781
G0 F3600 X39.648 Y72.244
G1 F1800 X40.875 Y71.565 E337.93778
G1 X41.867 Y71.385 E337.98807
G1 X59.152 Y71.088 E338.85055
G1 X124.704 Y82.055 E342.16641
G1 X212.186 Y99.126 E346.61323
G1 X216.324 Y90.553 E347.08815
G1 X225.246 Y74.765 E347.99289
G1 X226.069 Y73.945 E348.05085
G1 X226.69 Y73.493 E348.08917
G1 X227.793 Y73.052 E348.14843
G1 X240.008 Y71.251 E348.76443
G1 X241.135 Y71.307 E348.82073
G1 X254.005 Y74.901 E349.48738
G1 X265.767 Y81.254 E350.15432
G1 X266.589 Y81.944 E350.20786
G1 X274.077 Y91.535 E350.81492
G1 X274.654 Y92.735 E350.88135
G1 X274.817 Y94.398 E350.96471
G1 X270.182 Y112.833 E351.91306
G1 X245.507 Y174.126 E355.20947
G1 X225.211 Y224.496 E357.91878
G1 X224.435 Y225.46 E357.98052
G1 X223.791 Y226.017 E358.023
G1 X222.728 Y226.522 E358.08171
G1 X214.854 Y228.358 E358.48508
G1 X206.848 Y228.898 E358.88541
G1 X199.866 Y228.373 E359.23473
G1 X192.995 Y226.445 E359.59076
G1 X186.629 Y223.018 E359.95146
G1 X181.301 Y218.591 E360.29706
G1 X175.81 Y212.493 E360.70645
G1 X171.421 Y205.681 E361.11074
G1 X171.105 Y204.57 E361.16836
G1 X171.004 Y203.776 E361.2083
G1 X171.148 Y202.619 E361.26646
G1 X191.129 Y153.03 E363.93375
G1 X114.908 Y139.571 E367.79526
G1 X49.814 Y128.681 E371.08795
G1 X32.895 Y123.312 E371.97352
G1 X31.633 Y122.538 E372.04738
G1 X30.811 Y121.438 E372.11589
G1 X25.416 Y109.779 E372.75682
G1 X25.164 Y108.613 E372.81633
G1 X25.914 Y95.09 E373.49203
G1 X29.605 Y82.161 E374.16283
G1 X30.34 Y80.962 E374.233
G1 X39.648 Y72.244 E374.86925
G0 F3600 X39.884 Y72.571
G1 F1800 X41.011 Y71.947 E374.93352
G1 X41.938 Y71.779 E374.98053
G1 X59.12 Y71.489 E375.83786
G1 X124.627 Y82.448 E379.15144
G1 X212.412 Y99.578 E383.61365
G1 X216.672 Y90.75 E384.10268
G1 X225.567 Y75.011 E385.00463
G1 X226.305 Y74.268 E385.05687
G1 X226.887 Y73.844 E385.0928
