;FLAVOR:Marlin
;TIME:8830
;Filament used: 17.9117m, 0m
;Layer height: 0.4
;MINX:45.267
;MINY:116.521
;MINZ:0.3
;MAXX:253.635
;MAXY:182.825
;MAXZ:15.1
;TARGET_MACHINE.NAME:Creality CR-X
;Generated with Cura_SteamEngine 5.5.0
T0
M82 ;absolute extrusion mode
G21 ;metric values
G28 ;home all
G90 ;absolute positioning
M107 ;start with the fan off
G1 F2400 Z15.0 ;raise the nozzle 15mm
M109 S200 ;Set Extruder Temperature and Wait
M190 S60; Wait for bed temperature to reach target temp
T0 ;Switch to Extruder 1
G1 F3000 X5 Y10 Z0.2 ;move to prime start position
G92 E0 ;reset extrusion distance
G1 F600 X160 E15 ;prime nozzle in a line
G1 F5000 X180 ;quick wipe
G92 E0 ;reset extrusion distance
G92 E0

T0 ;switch to extruder 1
G92 E0 ;reset extruder distance
G1 F2000 E93 ;load filament
G92 E0 ;reset extruder distance
M104 S200
G92 E0
G1 F4200 E-3
;LAYER_COUNT:38
;LAYER:0
M107
G0 F3600 X57.647 Y117.907 Z0.3
;TYPE:SKIRT
G1 F4200 E0
G1 F1800 X59.885 Y117.36 E0.11494
G1 X241.007 Y116.521 E9.15125
G1 X243.361 Y117.068 E9.27182
G1 X245.703 Y118.627 E9.41218
G1 X246.979 Y120.315 E9.51775
G1 X247.544 Y121.573 E9.58655
G1 X251.595 Y135.636 E10.31669
G1 X253.635 Y149.218 E11.0019
G1 X251.521 Y163.763 E11.73518
G1 X247.805 Y177.084 E12.42514
G1 X246.607 Y179.252 E12.54871
G1 X244.461 Y181.069 E12.689
G1 X242.525 Y181.807 E12.79237
G1 X241.106 Y182.017 E12.86393
G1 X60.131 Y182.825 E21.8929
G1 X58.514 Y182.561 E21.97464
G1 X56.6 Y181.545 E22.08275
G1 X55.736 Y180.9 E22.13654
G1 X54.501 Y179.379 E22.23429
G1 X49.969 Y172.204 E22.65768
G1 X47.462 Y164.394 E23.06691
G1 X46.02 Y158.161 E23.38609
G1 X45.267 Y149.558 E23.81693
G1 X45.813 Y143.063 E24.14211
G1 X47.048 Y135.679 E24.51562
G1 X49.882 Y127.976 E24.92511
G1 X54.531 Y120.529 E25.36309
G1 X55.605 Y119.291 E25.44486
G1 X57.647 Y117.907 E25.56793
G0 F3600 X57.81 Y118.279
G1 F1800 X59.936 Y117.76 E25.67711
G1 X240.961 Y116.921 E34.70858
G1 X243.2 Y117.441 E34.82326
G1 X245.426 Y118.923 E34.95668
G1 X246.632 Y120.519 E35.05648
G1 X247.179 Y121.737 E35.12309
G1 X251.199 Y135.695 E35.84776
G1 X253.23 Y149.219 E36.53005
G1 X251.125 Y163.705 E37.26035
G1 X247.432 Y176.932 E37.94548
G1 X246.292 Y178.995 E38.06307
G1 X244.256 Y180.719 E38.19617
G1 X242.425 Y181.417 E38.29394
G1 X241.047 Y181.621 E38.36343
G1 X60.195 Y182.43 E47.38627
G1 X58.644 Y182.177 E47.46467
G1 X56.839 Y181.224 E47.5665
G1 X56.015 Y180.609 E47.6178
G1 X54.839 Y179.165 E47.71071
G1 X50.334 Y172.033 E48.13157
G1 X47.852 Y164.304 E48.53656
G1 X46.41 Y158.071 E48.85574
G1 X45.666 Y149.591 E49.28043
G1 X46.208 Y143.129 E49.60396
G1 X47.438 Y135.777 E49.97585
G1 X50.242 Y128.154 E50.38107
G1 X54.87 Y120.741 E50.81707
G1 X55.873 Y119.592 E50.89316
G1 X57.81 Y118.279 E51.0099
G0 F3600 X57.973 Y118.651
G1 F1800 X59.987 Y118.16 E51.11333
G1 X240.915 Y117.321 E60.13996
G1 X243.039 Y117.814 E60.24874
G1 X245.149 Y119.219 E60.37521
G1 X246.285 Y120.723 E60.46925
G1 X246.814 Y121.901 E60.53367
G1 X250.803 Y135.754 E61.25288
G1 X252.825 Y149.22 E61.93224
G1 X250.729 Y163.647 E62.65956
G1 X247.059 Y176.78 E63.33987
G1 X245.977 Y178.738 E63.45148
G1 X244.051 Y180.369 E63.57739
G1 X242.325 Y181.027 E63.66955
G1 X240.988 Y181.225 E63.73698
G1 X60.26 Y182.035 E72.75362
G1 X58.773 Y181.792 E72.82879
G1 X57.026 Y180.87 E72.92735
G1 X56.295 Y180.319 E72.97301
G1 X55.177 Y178.951 E73.06116
G1 X50.699 Y171.862 E73.47948
G1 X48.242 Y164.214 E73.88025
G1 X46.8 Y157.981 E74.19943
G1 X46.065 Y149.624 E74.61797
G1 X46.603 Y143.195 E74.93983
G1 X47.828 Y135.875 E75.31011
G1 X50.602 Y128.332 E75.71107
G1 X55.209 Y120.953 E76.14507
G1 X56.14 Y119.894 E76.21542
G1 X57.973 Y118.651 E76.32591
G0 F3600 X58.136 Y119.023
G1 F1800 X60.038 Y118.56 E76.42357
G1 X240.868 Y117.721 E85.44532
G1 X242.878 Y118.188 E85.54827
G1 X244.872 Y119.515 E85.66776
G1 X245.938 Y120.927 E85.75603
G1 X246.449 Y122.065 E85.81827
G1 X250.407 Y135.813 E86.53202
G1 X252.42 Y149.222 E87.20849
G1 X250.344 Y163.539 E87.93024
G1 X246.686 Y176.628 E88.60827
G1 X245.662 Y178.481 E88.7139
G1 X243.847 Y180.018 E88.83255
G1 X242.222 Y180.638 E88.91932
G1 X240.93 Y180.829 E88.98448
G1 X60.324 Y181.64 E97.99504
G1 X58.903 Y181.408 E98.06688
G1 X57.213 Y180.516 E98.16221
G1 X56.574 Y180.028 E98.20233
G1 X55.515 Y178.737 E98.28563
G1 X51.064 Y171.691 E98.70142
G1 X48.632 Y164.124 E99.09796
G1 X47.19 Y157.891 E99.41714
G1 X46.464 Y149.657 E99.82953
G1 X46.998 Y143.261 E100.14974
G1 X48.218 Y135.973 E100.5184
G1 X50.962 Y128.51 E100.9151
G1 X55.548 Y121.165 E101.3471
G1 X56.406 Y120.196 E101.41168
G1 X58.136 Y119.023 E101.51595
G0 F3600 X58.3 Y119.395
G1 F1800 X60.089 Y118.96 E101.60781
G1 X240.822 Y118.121 E110.62471
G1 X242.717 Y118.561 E110.72177
G1 X244.595 Y119.811 E110.83432
G1 X245.591 Y121.131 E110.91682
G1 X246.084 Y122.229 E110.97687
G1 X250.011 Y135.872 E111.68515
G1 X252.015 Y149.224 E112.35875
G1 X249.959 Y163.431 E113.07492
G1 X246.313 Y176.476 E113.75068
G1 X245.347 Y178.224 E113.85032
G1 X243.643 Y179.667 E113.96172
G1 X242.119 Y180.249 E114.04311
G1 X240.872 Y180.433 E114.106
G1 X60.388 Y181.245 E123.11047
G1 X59.033 Y181.024 E123.17897
G1 X57.4 Y180.162 E123.27109
G1 X56.854 Y179.739 E123.30555
G1 X55.853 Y178.523 E123.38413
G1 X51.429 Y171.52 E123.79738
G1 X49.022 Y164.034 E124.18969
G1 X47.58 Y157.801 E124.50887
G1 X46.863 Y149.69 E124.91511
G1 X47.393 Y143.327 E125.23366
G1 X48.608 Y136.071 E125.6007
G1 X51.322 Y128.688 E125.99314
G1 X55.848 Y121.43 E126.41988
G1 X56.672 Y120.499 E126.48191
G1 X58.3 Y119.395 E126.58004
G0 F3600 X58.463 Y119.768
G1 F1800 X60.14 Y119.36 E126.66615
G1 X240.775 Y118.521 E135.67816
G1 X242.556 Y118.935 E135.76939
G1 X244.318 Y120.107 E135.87496
G1 X245.244 Y121.335 E135.95169
G1 X245.719 Y122.393 E136.00955
G1 X249.615 Y135.931 E136.71238
G1 X251.61 Y149.226 E137.3831
G1 X249.574 Y163.323 E138.0937
G1 X245.94 Y176.324 E138.76718
G1 X245.032 Y177.967 E138.86083
G1 X243.439 Y179.316 E138.96498
G1 X242.017 Y179.859 E139.04092
G1 X240.813 Y180.037 E139.10164
G1 X60.453 Y180.85 E148.09993
G1 X59.162 Y180.639 E148.16519
G1 X57.587 Y179.808 E148.25403
G1 X57.135 Y179.452 E148.28274
G1 X56.191 Y178.309 E148.3567
G1 X51.795 Y171.35 E148.76735
G1 X49.412 Y163.944 E149.1555
G1 X47.97 Y157.711 E149.47467
G1 X47.262 Y149.723 E149.87476
G1 X47.788 Y143.393 E150.19165
G1 X48.998 Y136.169 E150.55708
G1 X51.682 Y128.867 E150.94521
G1 X56.148 Y121.695 E151.36672
G1 X56.94 Y120.8 E151.42635
G1 X58.463 Y119.768 E151.51813
G0 F3600 X58.626 Y120.141
G1 F1800 X60.191 Y119.76 E151.59849
G1 X240.728 Y118.921 E160.60561
G1 X242.397 Y119.309 E160.6911
G1 X244.038 Y120.4 E160.78941
G1 X244.898 Y121.542 E160.86074
G1 X245.354 Y122.557 E160.91625
G1 X249.219 Y135.99 E161.61362
G1 X251.205 Y149.228 E162.28145
G1 X249.189 Y163.215 E162.98648
G1 X245.567 Y176.172 E163.65769
G1 X244.717 Y177.71 E163.74536
G1 X243.235 Y178.965 E163.84224
G1 X241.915 Y179.469 E163.91274
G1 X240.754 Y179.641 E163.97129
G1 X60.517 Y180.455 E172.96344
G1 X59.292 Y180.255 E173.02537
G1 X57.774 Y179.454 E173.111
G1 X57.415 Y179.163 E173.13405
G1 X56.529 Y178.095 E173.20328
G1 X52.161 Y171.18 E173.61134
G1 X49.802 Y163.854 E173.99531
G1 X48.36 Y157.621 E174.31449
G1 X47.661 Y149.756 E174.70843
G1 X48.183 Y143.459 E175.02366
G1 X49.388 Y136.267 E175.38747
G1 X52.042 Y129.046 E175.77129
G1 X56.448 Y121.96 E176.18758
G1 X57.208 Y121.101 E176.2448
G1 X58.626 Y120.141 E176.33024
G0 F3600 X58.789 Y120.513
G1 F1800 X60.241 Y120.16 E176.40479
G1 X240.681 Y119.321 E185.40707
G1 X242.238 Y119.683 E185.48682
G1 X243.757 Y120.693 E185.57783
G1 X244.552 Y121.749 E185.64378
G1 X244.989 Y122.721 E185.69694
G1 X248.823 Y136.049 E186.38885
G1 X250.8 Y149.23 E187.0538
G1 X248.804 Y163.107 E187.75326
G1 X245.194 Y176.02 E188.42219
G1 X244.402 Y177.453 E188.50387
G1 X243.031 Y178.614 E188.5935
G1 X241.813 Y179.079 E188.65855
G1 X240.695 Y179.245 E188.71494
G1 X60.581 Y180.06 E197.70095
G1 X59.422 Y179.871 E197.75954
G1 X57.961 Y179.1 E197.84196
G1 X57.722 Y178.907 E197.85728
G1 X56.867 Y177.881 E197.92391
G1 X52.527 Y171.01 E198.32937
G1 X50.192 Y163.764 E198.70918
G1 X48.75 Y157.531 E199.02836
G1 X48.06 Y149.789 E199.41614
G1 X48.582 Y143.492 E199.73137
G1 X49.776 Y136.37 E200.09165
G1 X52.402 Y129.225 E200.47143
G1 X56.748 Y122.225 E200.88249
G1 X57.476 Y121.402 E200.93731
G1 X58.789 Y120.513 E201.01642
G0 F3600 X58.952 Y120.886
G1 F1800 X60.292 Y120.56 E201.08522
G1 X240.634 Y119.721 E210.08262
G1 X242.079 Y120.057 E210.15663
G1 X243.476 Y120.986 E210.24033
G1 X244.206 Y121.956 E210.3009
G1 X244.624 Y122.885 E210.35172
G1 X248.427 Y136.108 E211.03816
G1 X250.395 Y149.232 E211.70024
G1 X248.419 Y162.999 E212.39412
G1 X244.822 Y175.866 E213.06067
G1 X244.086 Y177.197 E213.13655
G1 X242.827 Y178.263 E213.21885
G1 X241.711 Y178.689 E213.27845
G1 X240.636 Y178.849 E213.33267
G1 X60.646 Y179.665 E222.3125
G1 X59.551 Y179.486 E222.36786
G1 X58.148 Y178.746 E222.44699
G1 X58.029 Y178.65 E222.45462
G1 X57.205 Y177.667 E222.51861
G1 X52.893 Y170.84 E222.92146
G1 X50.582 Y163.674 E223.29711
G1 X49.14 Y157.441 E223.61629
G1 X48.459 Y149.822 E223.99792
G1 X48.981 Y143.525 E224.31315
G1 X50.164 Y136.473 E224.66989
G1 X52.762 Y129.404 E225.04563
G1 X57.048 Y122.49 E225.45147
G1 X57.744 Y121.703 E225.50389
G1 X58.952 Y120.886 E225.57664
G0 F3600 X59.115 Y121.259
G1 F1800 X60.343 Y120.96 E225.6397
G1 X240.587 Y120.121 E234.63221
G1 X241.92 Y120.431 E234.70048
G1 X243.197 Y121.28 E234.77699
G1 X243.859 Y122.16 E234.83193
G1 X244.259 Y123.049 E234.88056
G1 X248.031 Y136.167 E235.56154
G1 X249.99 Y149.234 E236.22074
G1 X248.034 Y162.891 E236.90905
G1 X244.45 Y175.712 E237.57321
G1 X243.771 Y176.939 E237.64317
G1 X242.621 Y177.913 E237.71836
G1 X241.609 Y178.299 E237.7724
G1 X240.577 Y178.453 E237.82445
G1 X60.71 Y179.27 E246.79815
G1 X59.681 Y179.102 E246.85016
G1 X58.335 Y178.392 E246.92609
G1 X57.543 Y177.453 E246.98737
G1 X53.259 Y170.67 E247.38762
G1 X50.972 Y163.584 E247.7591
G1 X49.53 Y157.351 E248.07828
G1 X48.858 Y149.855 E248.45375
G1 X49.38 Y143.558 E248.76899
G1 X50.552 Y136.576 E249.1222
G1 X53.122 Y129.583 E249.49389
G1 X57.348 Y122.755 E249.89451
G1 X58.012 Y122.004 E249.94452
G1 X59.115 Y121.259 E250.01093
G0 F3600 X59.277 Y121.632
G1 F1800 X60.394 Y121.36 E250.06828
G1 X240.54 Y120.521 E259.0559
G1 X241.761 Y120.805 E259.11844
G1 X242.918 Y121.574 E259.18775
G1 X243.512 Y122.364 E259.23707
G1 X243.894 Y123.213 E259.28351
G1 X247.635 Y136.226 E259.95903
G1 X249.586 Y149.236 E260.61536
G1 X247.649 Y162.783 E261.2981
G1 X244.078 Y175.558 E261.95987
G1 X243.456 Y176.681 E262.02392
G1 X242.414 Y177.564 E262.09206
G1 X241.508 Y177.909 E262.14043
G1 X240.518 Y178.057 E262.19037
G1 X60.774 Y178.875 E271.15793
G1 X59.811 Y178.718 E271.2066
G1 X58.59 Y178.074 E271.27547
G1 X57.881 Y177.239 E271.33012
G1 X53.625 Y170.5 E271.72777
G1 X51.362 Y163.494 E272.09508
G1 X49.92 Y157.261 E272.41426
G1 X49.257 Y149.888 E272.78359
G1 X49.779 Y143.591 E273.09882
G1 X50.94 Y136.679 E273.44849
G1 X53.482 Y129.761 E273.8162
G1 X57.688 Y122.966 E274.21489
G1 X58.279 Y122.306 E274.25909
G1 X59.277 Y121.632 E274.31917
G0 F3600 X59.439 Y122.005
G1 F1800 X60.445 Y121.76 E274.37083
G1 X240.493 Y120.921 E283.35356
G1 X241.602 Y121.179 E283.41036
G1 X242.639 Y121.868 E283.47248
G1 X243.165 Y122.568 E283.51616
G1 X243.529 Y123.377 E283.56042
G1 X247.239 Y136.285 E284.23047
G1 X249.182 Y149.238 E284.88393
G1 X247.264 Y162.675 E285.5611
G1 X243.706 Y175.404 E286.2205
G1 X243.141 Y176.423 E286.27863
G1 X242.208 Y177.214 E286.33965
G1 X241.403 Y177.521 E286.38263
G1 X240.516 Y177.657 E286.4274
G1 X60.838 Y178.48 E295.39167
G1 X59.94 Y178.334 E295.43706
G1 X58.844 Y177.756 E295.49888
G1 X58.219 Y177.025 E295.54686
G1 X53.991 Y170.33 E295.9419
G1 X51.752 Y163.404 E296.30505
G1 X50.31 Y157.171 E296.62423
G1 X49.656 Y149.921 E296.9874
G1 X50.178 Y143.624 E297.30264
G1 X51.328 Y136.782 E297.64877
G1 X53.842 Y129.939 E298.01248
G1 X58.028 Y123.177 E298.40925
G1 X58.545 Y122.609 E298.44757
G1 X59.439 Y122.005 E298.5014
G0 F3600 X59.602 Y122.377
G1 F1800 X60.495 Y122.16 E298.54724
G1 X240.446 Y121.321 E307.52513
G1 X241.443 Y121.553 E307.5762
G1 X242.36 Y122.162 E307.63112
G1 X242.818 Y122.772 E307.66918
G1 X243.145 Y123.488 E307.70845
G1 X246.843 Y136.344 E308.37585
G1 X248.778 Y149.241 E309.02648
G1 X246.879 Y162.567 E309.69803
G1 X243.334 Y175.25 E310.35504
G1 X242.826 Y176.165 E310.40726
G1 X242.002 Y176.864 E310.46117
G1 X241.298 Y177.133 E310.49876
G1 X240.514 Y177.257 E310.53836
G1 X60.902 Y178.085 E319.49934
G1 X60.068 Y177.949 E319.5415
G1 X59.098 Y177.438 E319.5962
G1 X58.557 Y176.811 E319.63751
G1 X54.357 Y170.16 E320.02995
G1 X52.142 Y163.314 E320.38893
G1 X50.7 Y157.081 E320.70811
G1 X50.055 Y149.954 E321.06513
G1 X50.577 Y143.657 E321.38037
G1 X51.716 Y136.885 E321.72297
G1 X54.202 Y130.117 E322.08269
G1 X58.347 Y123.421 E322.47558
G1 X58.812 Y122.911 E322.51001
G1 X59.602 Y122.377 E322.55758
G0 F3600 X59.765 Y122.749
G1 F1800 X60.545 Y122.56 E322.59762
G1 X240.399 Y121.721 E331.57067
G1 X241.284 Y121.927 E331.61601
G1 X242.081 Y122.456 E331.66373
G1 X242.471 Y122.976 E331.69616
G1 X242.761 Y123.599 E331.73044
G1 X246.447 Y136.403 E332.39518
G1 X248.374 Y149.244 E333.04299
G1 X246.494 Y162.459 E333.70893
G1 X242.963 Y175.094 E334.36345
G1 X242.51 Y175.908 E334.40992
G1 X241.796 Y176.514 E334.45664
G1 X241.194 Y176.744 E334.4888
G1 X240.512 Y176.857 E334.52328
G1 X60.967 Y177.69 E343.48092
G1 X60.196 Y177.564 E343.51989
G1 X59.351 Y177.119 E343.56754
G1 X58.895 Y176.597 E343.60212
G1 X54.723 Y169.99 E343.99196
G1 X52.532 Y163.224 E344.34677
G1 X51.09 Y156.991 E344.66595
G1 X50.454 Y149.987 E345.01682
G1 X50.976 Y143.69 E345.33206
G1 X52.104 Y136.988 E345.67112
G1 X54.563 Y130.293 E346.02696
G1 X58.643 Y123.691 E346.41415
G1 X59.079 Y123.213 E346.44643
G1 X59.765 Y122.749 E346.48775
G0 F3600 X59.928 Y123.121
G1 F1800 X60.594 Y122.96 E346.52193
G1 X240.352 Y122.121 E355.49019
G1 X241.125 Y122.301 E355.52979
G1 X241.802 Y122.75 E355.57032
G1 X242.126 Y123.183 E355.5973
G1 X242.377 Y123.71 E355.62642
G1 X246.051 Y136.462 E356.2885
G1 X247.97 Y149.247 E356.93349
G1 X246.109 Y162.351 E357.59381
G1 X242.591 Y174.941 E358.24599
G1 X242.196 Y175.649 E358.28644
G1 X241.59 Y176.164 E358.32612
G1 X241.086 Y176.357 E358.35304
G1 X240.51 Y176.457 E358.38221
G1 X61.032 Y177.295 E367.3365
G1 X60.324 Y177.179 E367.37229
G1 X59.602 Y176.799 E367.413
G1 X59.233 Y176.383 E367.44074
G1 X55.089 Y169.82 E367.82798
G1 X52.922 Y163.134 E368.17863
G1 X51.48 Y156.901 E368.49781
G1 X50.853 Y150.02 E368.84252
G1 X51.375 Y143.723 E369.15776
G1 X52.492 Y137.091 E369.49329
G1 X54.924 Y130.469 E369.84524
G1 X58.962 Y123.934 E370.22849
G1 X59.343 Y123.517 E370.25667
G1 X59.928 Y123.121 E370.29192
G0 F3600 X60.091 Y123.493
G1 F1800 X60.643 Y123.36 E370.32024
G1 X240.305 Y122.521 E379.28371
G1 X240.966 Y122.675 E379.31758
G1 X241.523 Y123.045 E379.35094
G1 X241.767 Y123.359 E379.37078
G1 X241.993 Y123.821 E379.39643
G1 X245.655 Y136.521 E380.05585
G1 X247.566 Y149.25 E380.69802
G1 X245.724 Y162.243 E381.35273
G1 X242.219 Y174.788 E382.00257
G1 X241.883 Y175.39 E382.03697
G1 X241.383 Y175.815 E382.0697
G1 X241.014 Y175.964 E382.08956
G1 X240.508 Y176.057 E382.11523
G1 X61.03 Y176.895 E391.06952
G1 X60.453 Y176.795 E391.09873
G1 X59.853 Y176.479 E391.13256
G1 X59.571 Y176.169 E391.15347
G1 X55.453 Y169.647 E391.53829
G1 X53.312 Y163.044 E391.8846
G1 X51.87 Y156.811 E392.20378
G1 X51.252 Y150.053 E392.54234
G1 X51.774 Y143.756 E392.85758
G1 X52.88 Y137.194 E393.18958
G1 X55.285 Y130.645 E393.53764
G1 X59.281 Y124.177 E393.91695
G1 X59.607 Y123.821 E393.94103
G1 X60.091 Y123.493 E393.9702
G0 F3600 X60.256 Y123.864
G1 F1800 X60.645 Y123.76 E393.99029
G1 X240.258 Y122.921 E402.95132
G1 X240.807 Y123.049 E402.97944
G1 X241.245 Y123.34 E403.00567
G1 X241.41 Y123.54 E403.01861
G1 X241.609 Y123.932 E403.04054
G1 X245.259 Y136.58 E403.6973
G1 X247.162 Y149.253 E404.33665
G1 X245.339 Y162.135 E404.98574
G1 X241.847 Y174.635 E405.63325
G1 X241.57 Y175.131 E405.66159
G1 X241.172 Y175.469 E405.68764
G1 X240.937 Y175.572 E405.70044
G1 X240.506 Y175.657 E405.72236
